svg/u1f680.svg

<svg viewBox="0 0 128 128" xmlns="http://www.w3.org/2000/svg">
  <polygon points="3.77,71.73 20.11,55.63 47.93,50.7 45.18,65.26 7.57,76.82 5.14,75.77 " fill="#CA2C31"/>
  <polygon points="22.94,59.76 5.2,75.88 18.25,82.24 38.06,72.13 38.06,67.36 42.11,56.44 " fill="#A02422"/>
  <path d="M64.92,88.15l-8.57,3.72l-8.09,17.15c0,0,7.12,15.77,7.44,15.77c0.32,0,4.37,0.32,4.37,0.32 l14.4-16.1l3.64-27.5L64.92,88.15z" fill="#A02422"/>
  <path d="M56.5,100.84c0,0,4.77-0.97,8.17-2.59c3.4-1.62,7.6-4.04,7.6-4.04l-1.54,13.43l-15.05,17.13 c0,0-0.59-0.73-3.09-6.17c-1.99-4.34-2.68-5.89-2.68-5.89L56.5,100.84z" fill="#CA2C31"/>
  <path d="M31.58,80.66c0,0-5.74-0.48-12.03,7.47c-5.74,7.26-8.43,19.08-9.47,22.12s-3.53,3.66-2.7,5.05 s4.42,1.31,8.85,0.76s8.23-1.94,8.23-1.94s-0.19,0.48-0.83,1.52c-0.23,0.37-1.03,0.9-0.97,1.45c0.14,1.31,11.36,1.34,20.32-7.88 c9.68-9.95,4.98-18.11,4.98-18.11L31.58,80.66z" fill="#F7D74D"/>
  <path d="M33.31,85.29c0,0-6.19,0.33-11.31,8.28s-7.5,17.16-7.01,17.78c0.48,0.62,10.02-2.83,12.31-2.14 c1.57,0.48,0.76,2.07,1.18,2.49c0.35,0.35,4.49,0.94,11.19-6.32c6.71-7.26,5.12-17.46,5.12-17.46L33.31,85.29z" fill="#FBF0B4"/>
  <path d="M36.35,74.44c0,0-3.11,2.77-4.22,4.36c-1.11,1.59-1.11,1.73-1.04,2.21 c0.07,0.48,1.22,5.75,6.01,10.37c5.88,5.67,11.13,6.43,11.89,6.43c0.76,0,5.81-5.67,5.81-5.67L36.35,74.44z" fill="#858585"/>
  <path d="M50.1,91.24c0,0,5.04,3.31,13.49,0.47c11.55-3.88,20.02-12.56,30.51-23.52 c10.12-10.58,18.61-23.71,18.61-23.71l-5.95-19.93L50.1,91.24z" fill="#437687"/>
  <path d="M67.99,80.33l1.39-4.32l3.48,0.49c0,0,2.65,1.25,4.6,2.16c1.95,0.91,4.46,1.6,4.46,1.6l-4.95,4.18 c0,0-2.7-1.02-4.67-1.88C70.08,81.59,67.99,80.33,67.99,80.33z" fill="#3F545F"/>
  <path d="M84.32,16.14c0,0-9.62,5.58-23.41,18.63c-12.43,11.76-21.64,22.4-23.87,31.45 c-1.86,7.58-0.87,12.18,3.36,17.15c4.47,5.26,9.71,7.87,9.71,7.87s3.94,0.06,20.38-12.59c20.51-15.79,36.94-42.23,36.94-42.23 L84.32,16.14z" fill="#8DAFBF"/>
  <path d="M104.18,41.84c0,0-8.37-3.57-14.34-11.9c-5.93-8.27-5.46-13.86-5.46-13.86s4.96-3.89,16.11-8.34 c7.5-2.99,17.71-4.52,21.07-2.03s-2.3,14.98-2.3,14.98l-10.31,19.96L104.18,41.84z" fill="#D83F22"/>
  <path d="M68.17,80.4c0,0-7.23-3.69-11.83-8.94c-8.7-9.91-10.5-20.79-10.5-20.79l4.37-5.13 c0,0,1.09,11.56,10.42,21.55c6.08,6.51,12.43,9.49,12.43,9.49s-1.27,1.07-2.63,2.11C69.56,79.36,68.17,80.4,68.17,80.4z" fill="#6896A5"/>
  <path d="M112.71,44.48c0,0,4.34-5.23,8.45-17.02c5.74-16.44,0.74-21.42,0.74-21.42s-1.69,7.82-7.56,18.69 c-4.71,8.71-10.41,17-10.41,17s3.14,1.41,4.84,1.9C110.91,44.25,112.71,44.48,112.71,44.48z" fill="#A02422"/>
  <path d="M39.81,69.66c1.3,1.24,3.27-0.06,4.56-3.1c1.3-3.04,1.28-4.74,0.28-5.46 c-1.24-0.9-3.32,1.07-4.23,2.82C39.42,65.86,38.83,68.72,39.81,69.66z" fill="#B3E1EE"/>
  <path d="M84.95,20.13c0,0-7.61,5.47-15.73,12.91c-7.45,6.83-12.39,12.17-13.07,13.41 c-0.72,1.33-0.73,3.21-0.17,4.17s1.8,1.46,2.93,0.62c1.13-0.85,9.18-9.75,16.45-16.11c6.65-5.82,11.78-9.51,11.78-9.51 s2.08-3.68,1.74-4.52C88.54,20.25,84.95,20.13,84.95,20.13z" fill="#B3E1EE"/>
  <path d="M84.95,20.13c0,0,5.62-4.31,11.74-7.34c5.69-2.82,11.35-5.17,12.37-3.13 c0.97,1.94-5.37,4.58-10.95,8.14c-5.58,3.56-10.95,7.81-10.95,7.81s-0.82-1.5-1.35-2.89C85.22,21.21,84.95,20.13,84.95,20.13z" fill="#ED6A65"/>
  <path d="M89.59,39.25c-5.57-5.13-13.32-3.75-17.14,0.81c-3.92,4.7-3.63,11.88,1,16.2 c4.21,3.92,12.04,4.81,16.76-0.69C94.41,50.69,94.15,43.44,89.59,39.25z" fill="#E1E1E1"/>
  <path d="M75.33,41.87c-3.31,3.25-3.13,9.69,0.81,12.63c3.44,2.57,8.32,2.44,11.38-0.69 c3.06-3.13,3.06-8.82,0.19-11.76C84.41,38.68,79.12,38.15,75.33,41.87z" fill="#3F545F"/>
  <path d="M50,76.89c0,0,6.19-6.28,6.87-5.6c0.68,0.68,0.59,4.49-2.37,8.73c-2.97,4.24-9.5,11.79-14.67,16.88 c-5.1,5.01-12.29,10.74-12.97,10.64c-0.53-0.08-2.68-1.15-3.54-2.19c-0.84-1.03,1.67-5.9,2.68-7.51C27.02,96.23,50,76.89,50,76.89z" fill="#A02524"/>
  <path d="M21.23,101.85c-0.08,1.44,2.12,3.54,2.12,3.54L56.87,71.3c0,0-1.57-1.77-6.19,1.1 c-4.66,2.9-8.74,6.38-14.76,12.21C27.53,92.75,21.31,100.41,21.23,101.85z" fill="#CA2C31"/>
  <path d="M19.06,36.95c-1.11,1.11-1.16,2.89,0.08,3.91c1.1,0.91,2.89,0.32,3.56-0.5s0.59-2.6-0.3-3.48 C21.51,35.99,19.74,36.28,19.06,36.95z" fill="#FFFFFF"/>
  <path d="M41.02,35.65c-0.84,0.93-0.57,2.31,0.21,2.82s1.95,0.46,2.52-0.24 c0.51-0.63,0.57-1.89-0.21-2.67C42.86,34.89,41.56,35.05,41.02,35.65z" opacity="0.5" fill="#FFFFFF"/>
  <path d="M55.55,11.89c0,0,1.22-3.48,1.94-3.52c0.73-0.04,1.78,3.48,1.78,3.48s3.61,0.04,3.85,0.57 c0.31,0.68-2.31,2.96-2.31,2.96s0.85,3.4,0.45,3.81c-0.45,0.45-3.56-1.34-3.56-1.34s-3.2,2.23-3.89,1.62 c-0.6-0.53,0.65-4.13,0.65-4.13s-3-2.19-2.84-2.8C51.85,11.68,55.55,11.89,55.55,11.89z" fill="#FFFFFF"/>
  <path d="M97.01,95.33c1.21,0.67,2.73,0.29,3.29-1c0.51-1.15-0.43-2.52-1.28-2.89 c-0.85-0.37-2.34,0.12-2.88,1.09C95.61,93.49,96.28,94.93,97.01,95.33z" fill="#FFFFFF"/>
  <path d="M114.19,65.84c-0.69-1.07-2.18-1.42-3.15-0.56c-0.94,0.84-0.71,2.16-0.18,2.83 c0.53,0.67,1.95,0.92,2.81,0.37S114.61,66.48,114.19,65.84z" fill="#FFFFFF"/>
</svg>

<svg viewBox="0 0 128 128" xmlns="http://www.w3.org/2000/svg">
  <defs/>
  <path d="M3.77,71.73 L20.11,55.63 L47.93,50.7 L45.18,65.26 L7.57,76.82 L5.14,75.77 Z" fill="#CA2C31"/>
  <path d="M22.94,59.76 L5.2,75.88 L18.25,82.24 L38.06,72.13 L38.06,67.36 L42.11,56.44 Z" fill="#A02422"/>
  <path d="M64.92,88.15 L56.35,91.87 L48.26,109.02 C48.26,109.02 55.38,124.79 55.7,124.79 C56.02,124.79 60.07,125.11 60.07,125.11 L74.47,109.01 L78.11,81.51 L64.92,88.15 Z" fill="#A02422"/>
  <path d="M56.5,100.84 C56.5,100.84 61.27,99.87 64.67,98.25 C68.07,96.63 72.27,94.21 72.27,94.21 L70.73,107.64 L55.68,124.77 C55.68,124.77 55.09,124.04 52.59,118.6 C50.6,114.26 49.91,112.71 49.91,112.71 L56.5,100.84 Z" fill="#CA2C31"/>
  <path d="M31.58,80.66 C31.58,80.66 25.84,80.18 19.55,88.13 C13.81,95.39 11.12,107.21 10.08,110.25 C9.04,113.29 6.55,113.91 7.38,115.3 C8.21,116.69 11.8,116.61 16.23,116.06 C20.66,115.51 24.46,114.12 24.46,114.12 C24.46,114.12 24.27,114.6 23.63,115.64 C23.4,116.01 22.6,116.54 22.66,117.09 C22.8,118.4 34.02,118.43 42.98,109.21 C52.66,99.26 47.96,91.1 47.96,91.1 L31.58,80.66 Z" fill="#F7D74D"/>
  <path d="M33.31,85.29 C33.31,85.29 27.12,85.62 22,93.57 C16.88,101.52 14.5,110.73 14.99,111.35 C15.47,111.97 25.01,108.52 27.3,109.21 C28.87,109.69 28.06,111.28 28.48,111.7 C28.83,112.05 32.97,112.64 39.67,105.38 C46.38,98.12 44.79,87.92 44.79,87.92 L33.31,85.29 Z" fill="#FBF0B4"/>
  <path d="M36.35,74.44 C36.35,74.44 33.24,77.21 32.13,78.8 C31.02,80.39 31.02,80.53 31.09,81.01 C31.16,81.49 32.31,86.76 37.1,91.38 C42.98,97.05 48.23,97.81 48.99,97.81 C49.75,97.81 54.8,92.14 54.8,92.14 L36.35,74.44 Z" fill="#858585"/>
  <path d="M50.1,91.24 C50.1,91.24 55.14,94.55 63.59,91.71 C75.14,87.83 83.61,79.15 94.1,68.19 C104.22,57.61 112.71,44.48 112.71,44.48 L106.76,24.55 L50.1,91.24 Z" fill="#437687"/>
  <path d="M67.99,80.33 L69.38,76.01 L72.86,76.5 C72.86,76.5 75.51,77.75 77.46,78.66 C79.41,79.57 81.92,80.26 81.92,80.26 L76.97,84.44 C76.97,84.44 74.27,83.42 72.3,82.56 C70.08,81.59 67.99,80.33 67.99,80.33 Z" fill="#3F545F"/>
  <path d="M84.32,16.14 C84.32,16.14 74.7,21.72 60.91,34.77 C48.48,46.53 39.27,57.17 37.04,66.22 C35.18,73.8 36.17,78.4 40.4,83.37 C44.87,88.63 50.11,91.24 50.11,91.24 C50.11,91.24 54.05,91.3 70.49,78.65 C91,62.86 107.43,36.42 107.43,36.42 L84.32,16.14 Z" fill="#8DAFBF"/>
  <path d="M104.18,41.84 C104.18,41.84 95.81,38.27 89.84,29.94 C83.91,21.67 84.38,16.08 84.38,16.08 C84.38,16.08 89.34,12.19 100.49,7.74 C107.99,4.75 118.2,3.22 121.56,5.71 C124.92,8.2 119.26,20.69 119.26,20.69 L108.95,40.65 L104.18,41.84 Z" fill="#D83F22"/>
  <path d="M68.17,80.4 C68.17,80.4 60.94,76.71 56.34,71.46 C47.64,61.55 45.84,50.67 45.84,50.67 L50.21,45.54 C50.21,45.54 51.3,57.1 60.63,67.09 C66.71,73.6 73.06,76.58 73.06,76.58 C73.06,76.58 71.79,77.65 70.43,78.69 C69.56,79.36 68.17,80.4 68.17,80.4 Z" fill="#6896A5"/>
  <path d="M112.71,44.48 C112.71,44.48 117.05,39.25 121.16,27.46 C126.9,11.02 121.9,6.04 121.9,6.04 C121.9,6.04 120.21,13.86 114.34,24.73 C109.63,33.44 103.93,41.73 103.93,41.73 C103.93,41.73 107.07,43.14 108.77,43.63 C110.91,44.25 112.71,44.48 112.71,44.48 Z" fill="#A02422"/>
  <path d="M39.81,69.66 C41.11,70.9 43.08,69.6 44.37,66.56 C45.67,63.52 45.65,61.82 44.65,61.1 C43.41,60.2 41.33,62.17 40.42,63.92 C39.42,65.86 38.83,68.72 39.81,69.66 Z" fill="#B3E1EE"/>
  <path d="M84.95,20.13 C84.95,20.13 77.34,25.6 69.22,33.04 C61.77,39.87 56.83,45.21 56.15,46.45 C55.43,47.78 55.42,49.66 55.98,50.62 C56.54,51.58 57.78,52.08 58.91,51.24 C60.04,50.39 68.09,41.49 75.36,35.13 C82.01,29.31 87.14,25.62 87.14,25.62 C87.14,25.62 89.22,21.94 88.88,21.1 C88.54,20.25 84.95,20.13 84.95,20.13 Z" fill="#B3E1EE"/>
  <path d="M84.95,20.13 C84.95,20.13 90.57,15.82 96.69,12.79 C102.38,9.97 108.04,7.62 109.06,9.66 C110.03,11.6 103.69,14.24 98.11,17.8 C92.53,21.36 87.16,25.61 87.16,25.61 C87.16,25.61 86.34,24.11 85.81,22.72 C85.22,21.21 84.95,20.13 84.95,20.13 Z" fill="#ED6A65"/>
  <path d="M89.59,39.25 C84.02,34.12 76.27,35.5 72.45,40.06 C68.53,44.76 68.82,51.94 73.45,56.26 C77.66,60.18 85.49,61.07 90.21,55.57 C94.41,50.69 94.15,43.44 89.59,39.25 Z" fill="#E1E1E1"/>
  <path d="M75.33,41.87 C72.02,45.12 72.2,51.56 76.14,54.5 C79.58,57.07 84.46,56.94 87.52,53.81 C90.58,50.68 90.58,44.99 87.71,42.05 C84.41,38.68 79.12,38.15 75.33,41.87 Z" fill="#3F545F"/>
  <path d="M50,76.89 C50,76.89 56.19,70.61 56.87,71.29 C57.55,71.97 57.46,75.78 54.5,80.02 C51.53,84.26 45,91.81 39.83,96.9 C34.73,101.91 27.54,107.64 26.86,107.54 C26.33,107.46 24.18,106.39 23.32,105.35 C22.48,104.32 24.99,99.45 26,97.84 C27.02,96.23 50,76.89 50,76.89 Z" fill="#A02524"/>
  <path d="M21.23,101.85 C21.15,103.29 23.35,105.39 23.35,105.39 L56.87,71.3 C56.87,71.3 55.3,69.53 50.68,72.4 C46.02,75.3 41.94,78.78 35.92,84.61 C27.53,92.75 21.31,100.41 21.23,101.85 Z" fill="#CA2C31"/>
  <path d="M19.06,36.95 C17.95,38.06 17.9,39.84 19.14,40.86 C20.24,41.77 22.03,41.18 22.7,40.36 C23.37,39.54 23.29,37.76 22.4,36.88 C21.51,35.99 19.74,36.28 19.06,36.95 Z" fill="#FFFFFF"/>
  <path d="M41.02,35.65 C40.18,36.58 40.45,37.96 41.23,38.47 C42.01,38.98 43.18,38.93 43.75,38.23 C44.26,37.6 44.32,36.34 43.54,35.56 C42.86,34.89 41.56,35.05 41.02,35.65 Z" fill="#FFFFFF" opacity="0.5"/>
  <path d="M55.55,11.89 C55.55,11.89 56.77,8.41 57.49,8.37 C58.22,8.33 59.27,11.85 59.27,11.85 C59.27,11.85 62.88,11.89 63.12,12.42 C63.43,13.1 60.81,15.38 60.81,15.38 C60.81,15.38 61.66,18.78 61.26,19.19 C60.81,19.64 57.7,17.85 57.7,17.85 C57.7,17.85 54.5,20.08 53.81,19.47 C53.21,18.94 54.46,15.34 54.46,15.34 C54.46,15.34 51.46,13.15 51.62,12.54 C51.85,11.68 55.55,11.89 55.55,11.89 Z" fill="#FFFFFF"/>
  <path d="M97.01,95.33 C98.22,96 99.74,95.62 100.3,94.33 C100.81,93.18 99.87,91.81 99.02,91.44 C98.17,91.07 96.68,91.56 96.14,92.53 C95.61,93.49 96.28,94.93 97.01,95.33 Z" fill="#FFFFFF"/>
  <path d="M114.19,65.84 C113.5,64.77 112.01,64.42 111.04,65.28 C110.1,66.12 110.33,67.44 110.86,68.11 C111.39,68.78 112.81,69.03 113.67,68.48 C114.53,67.93 114.61,66.48 114.19,65.84 Z" fill="#FFFFFF"/>
</svg>
